images/icons/search.svg

<svg width="27" height="28" viewBox="0 0 27 28" fill="none" xmlns="http://www.w3.org/2000/svg">
<path fill-rule="evenodd" clip-rule="evenodd" d="M20.8086 19.1845L26.8075 25.1906C27.0754 25.4886 27.0622 25.9447 26.7775 26.2267L25.7277 27.2777C25.5869 27.4199 25.3952 27.4998 25.1953 27.4998C24.9953 27.4998 24.8037 27.4199 24.6629 27.2777L18.664 21.2716C18.4981 21.1054 18.3475 20.9245 18.2141 20.7311L17.0893 19.2296C15.2282 20.7175 12.9171 21.5276 10.5355 21.5269C5.62785 21.5439 1.36328 18.1545 0.266542 13.3651C-0.830192 8.57578 1.53362 3.66477 5.95852 1.53956C10.3834 -0.585649 15.6885 0.642126 18.733 4.49601C21.7774 8.34989 21.7488 13.8013 18.664 17.6229L20.1637 18.659C20.3979 18.8091 20.6143 18.9854 20.8086 19.1845ZM3.03678 11.0162C3.03678 15.1625 6.39402 18.5238 10.5354 18.5238C12.5241 18.5238 14.4314 17.7328 15.8377 16.3249C17.2439 14.9169 18.034 13.0073 18.034 11.0162C18.034 6.86984 14.6767 3.50856 10.5354 3.50856C6.39402 3.50856 3.03678 6.86984 3.03678 11.0162Z" fill="#07484A"/>
</svg>

<svg width="27" height="28" fill="none" xmlns="http://www.w3.org/2000/svg"><path fill-rule="evenodd" clip-rule="evenodd" d="m20.809 19.184 5.998 6.007a.751.751 0 0 1-.03 1.036l-1.05 1.05a.75.75 0 0 1-1.064 0l-5.999-6.005a3.898 3.898 0 0 1-.45-.54L17.09 19.23a10.49 10.49 0 0 1-6.553 2.297 10.5 10.5 0 0 1-10.27-8.162A10.514 10.514 0 0 1 5.96 1.54a10.49 10.49 0 0 1 12.774 2.956 10.52 10.52 0 0 1-.069 13.127l1.5 1.036c.234.15.45.326.645.526ZM3.037 11.017c0 4.146 3.357 7.508 7.498 7.508a7.494 7.494 0 0 0 5.303-2.2 7.513 7.513 0 0 0 2.196-5.308c0-4.146-3.357-7.507-7.499-7.507-4.141 0-7.498 3.36-7.498 7.507Z" fill="#07484A"/></svg>
